X: 1
T: Garrett Barry's
R: jig
M: 6/8
L: 1/8
K: Gmaj
A|: DEF ~G3|AGE c2A|dcA d2e|fed cAG|
~F3 GFG|AGE (3Bcd e|dcA GEA|DED D2 A:|
|:dcA d2e|fed (3efg e|dcA c2d|efd ecA|
dAA d2e|fed (3efg e|dcA GEA|DED D2 A:|


Tune 544	Setting 13502

